public/images/icon-news.svg

<svg xmlns="http://www.w3.org/2000/svg" width="24" height="24" fill="none"><path fill="#fff" d="M19.875 3H4.125C2.953 3 2 3.897 2 5v14c0 1.103.953 2 2.125 2h15.75C21.047 21 22 20.103 22 19V5c0-1.103-.953-2-2.125-2Zm0 16H4.125c-.057 0-.096-.016-.113-.016-.007 0-.011.002-.012.008L3.988 5.046c.007-.01.052-.046.137-.046h15.75c.079.001.122.028.125.008l.012 13.946c-.007.01-.052.046-.137.046Z"/><path fill="#fff" d="M6 7h6v6H6V7Zm7 8H6v2h12v-2h-5Zm1-4h4v2h-4v-2Zm0-4h4v2h-4V7Z"/></svg>

<svg width="24" height="24" viewBox="0 0 24 24" fill="none" xmlns="http://www.w3.org/2000/svg">
<path d="M19.875 3H4.125C2.953 3 2 3.897 2 5V19C2 20.103 2.953 21 4.125 21H19.875C21.047 21 22 20.103 22 19V5C22 3.897 21.047 3 19.875 3ZM19.875 19H4.125C4.068 19 4.029 18.984 4.012 18.984C4.005 18.984 4.001 18.986 4 18.992L3.988 5.046C3.995 5.036 4.04 5 4.125 5H19.875C19.954 5.001 19.997 5.028 20 5.008L20.012 18.954C20.005 18.964 19.96 19 19.875 19Z" fill="white"/>
<path d="M6 7H12V13H6V7ZM13 15H6V17H18V15H14H13ZM14 11H18V13H14V11ZM14 7H18V9H14V7Z" fill="white"/>
</svg>
